X: 632
T: Adam
R: polka
M: 2/4
K: Gmajor
z2 GG|GG GG|GD GA|BB AA|G2 z2|
|:d2 B2|d2 B2|AA AA|BA G2:|
|:d2 B2|d2 B2|AA AA|BA G2:|

